X:84
T:Bonny Lass, The
M:2/4
L:1/8
B:Thompson's Compleat Collection of 200 Favourite Country Dances, vol. 1 (London, 1757)
Z:Transcribed and edited by Fynnian Titford-Mock, 2007
Z:abc's:AK/Fiddler's Companion
K:G
BGcA|dBeg|dB GB|dB A2|BGcA|dBeg|bgeg|dB G2:|
|:af ge|fdeA|af B^c|d2 d2|afge|fdeA|afge|B^c d2:|

